assets/images/IndiGo.svg

<?xml version="1.0" encoding="UTF-8"?>
<svg width="113px" height="23px" viewBox="0 0 113 23" version="1.1" xmlns="http://www.w3.org/2000/svg" xmlns:xlink="http://www.w3.org/1999/xlink">
    <!-- Generator: Sketch 56.3 (81716) - https://sketch.com -->
    <title>IndiGo-Blue</title>
    <desc>Created with Sketch.</desc>
    <g id="IndiGo-Blue" stroke="none" stroke-width="1" fill="none" fill-rule="evenodd">
        <path d="M108.722779,7.97975234 C108.722779,8.49817342 108.303445,8.91836735 107.7868,8.91836735 C107.269835,8.91836735 106.850501,8.49817342 106.850501,7.97975234 C106.850501,7.46133126 107.269835,7.04081633 107.7868,7.04081633 C108.303445,7.04081633 108.722779,7.46133126 108.722779,7.97975234 Z M105.914362,5.1631048 C105.914362,5.68152588 105.495029,6.10204082 104.978063,6.10204082 C104.461098,6.10204082 104.042085,5.68152588 104.042085,5.1631048 C104.042085,4.64500473 104.461098,4.2244898 104.978063,4.2244898 C105.495029,4.2244898 105.914362,4.64500473 105.914362,5.1631048 Z M108.722779,5.1631048 C108.722779,5.68152588 108.303445,6.10204082 107.7868,6.10204082 C107.269835,6.10204082 106.850501,5.68152588 106.850501,5.1631048 C106.850501,4.64500473 107.269835,4.2244898 107.7868,4.2244898 C108.303445,4.2244898 108.722779,4.64500473 108.722779,5.1631048 Z M103.105946,5.1631048 C103.105946,5.68152588 102.686612,6.10204082 102.169967,6.10204082 C101.653002,6.10204082 101.233668,5.68152588 101.233668,5.1631048 C101.233668,4.64500473 101.653002,4.2244898 102.169967,4.2244898 C102.686612,4.2244898 103.105946,4.64500473 103.105946,5.1631048 Z M110.320855,2.152526 C110.686458,2.51915932 110.686458,3.11341348 110.320855,3.48036784 C109.955251,3.84668011 109.362666,3.84668011 108.996742,3.48036784 C108.631459,3.11341348 108.631459,2.51915932 108.996742,2.152526 C109.362666,1.78589269 109.955251,1.78589269 110.320855,2.152526 Z M112.661202,0.274974984 C113.026806,0.641608296 113.026806,1.23586246 112.661202,1.60281682 C112.295598,1.96912909 111.703013,1.96912909 111.337089,1.60281682 C110.971806,1.23586246 110.971806,0.641608296 111.337089,0.274974984 C111.703013,-0.0916583279 112.295598,-0.0916583279 112.661202,0.274974984 Z M99.8294592,5.1631048 C99.8294592,5.68152588 99.4101253,6.10204082 98.8931602,6.10204082 C98.3761951,6.10204082 97.9571812,5.68152588 97.9571812,5.1631048 C97.9571812,4.64500473 98.3761951,4.2244898 98.8931602,4.2244898 C99.4101253,4.2244898 99.8294592,4.64500473 99.8294592,5.1631048 Z M97.0210423,5.1631048 C97.0210423,5.68152588 96.6020285,6.10204082 96.0850634,6.10204082 C95.5680983,6.10204082 95.1487643,5.68152588 95.1487643,5.1631048 C95.1487643,4.64500473 95.5680983,4.2244898 96.0850634,4.2244898 C96.6020285,4.2244898 97.0210423,4.64500473 97.0210423,5.1631048 Z M107.7868,9.85714286 C108.303445,9.85714286 108.722779,10.2776578 108.722779,10.7957579 C108.722779,11.3141789 108.303445,11.7346939 107.7868,11.7346939 C107.269835,11.7346939 106.850501,11.3141789 106.850501,10.7957579 C106.850501,10.2776578 107.269835,9.85714286 107.7868,9.85714286 Z M97.4891118,19.2447375 C97.4891118,19.7631585 97.0697778,20.1836735 96.5528127,20.1836735 C96.0361677,20.1836735 95.6168338,19.7631585 95.6168338,19.2447375 C95.6168338,18.7263164 96.0361677,18.3061224 96.5528127,18.3061224 C97.0697778,18.3061224 97.4891118,18.7263164 97.4891118,19.2447375 Z M94.6806948,16.4287319 C94.6806948,16.946832 94.261681,17.3673469 93.7447159,17.3673469 C93.2277508,17.3673469 92.8084169,16.946832 92.8084169,16.4287319 C92.8084169,15.9103109 93.2277508,15.4897959 93.7447159,15.4897959 C94.261681,15.4897959 94.6806948,15.9103109 94.6806948,16.4287319 Z M97.4891118,16.4287319 C97.4891118,16.946832 97.0697778,17.3673469 96.5528127,17.3673469 C96.0361677,17.3673469 95.6168338,16.946832 95.6168338,16.4287319 C95.6168338,15.9103109 96.0361677,15.4897959 96.5528127,15.4897959 C97.0697778,15.4897959 97.4891118,15.9103109 97.4891118,16.4287319 Z M91.8722779,16.4287319 C91.8722779,16.946832 91.452944,17.3673469 90.9359789,17.3673469 C90.4193339,17.3673469 90,16.946832 90,16.4287319 C90,15.9103109 90.4193339,15.4897959 90.9359789,15.4897959 C91.452944,15.4897959 91.8722779,15.9103109 91.8722779,16.4287319 Z M96.5528127,21.122449 C97.0697778,21.122449 97.4891118,21.5429639 97.4891118,22.061385 C97.4891118,22.5794851 97.0697778,23 96.5528127,23 C96.0361677,23 95.6168338,22.5794851 95.6168338,22.061385 C95.6168338,21.5429639 96.0361677,21.122449 96.5528127,21.122449 Z M107.7868,12.6734694 C108.303445,12.6734694 108.722779,13.0939843 108.722779,13.6124054 C108.722779,14.1308265 108.303445,14.5510204 107.7868,14.5510204 C107.269835,14.5510204 106.850501,14.1308265 106.850501,13.6124054 C106.850501,13.0939843 107.269835,12.6734694 107.7868,12.6734694 Z M107.7868,15.9591837 C108.303445,15.9591837 108.722779,16.3793776 108.722779,16.8977987 C108.722779,17.4162198 108.303445,17.8367347 107.7868,17.8367347 C107.269835,17.8367347 106.850501,17.4162198 106.850501,16.8977987 C106.850501,16.3793776 107.269835,15.9591837 107.7868,15.9591837 Z M101.701737,12.2042421 C101.701737,12.7226632 101.282403,13.1428571 100.765438,13.1428571 C100.248473,13.1428571 99.8294592,12.7226632 99.8294592,12.2042421 C99.8294592,11.6858211 100.248473,11.2653061 100.765438,11.2653061 C101.282403,11.2653061 101.701737,11.6858211 101.701737,12.2042421 Z M103.299847,9.19330707 C103.665404,9.56021437 103.665404,10.1543923 103.299847,10.5209786 C102.933971,10.8875649 102.341461,10.8875649 101.975905,10.5209786 C101.610348,10.1543923 101.610348,9.56021437 101.975905,9.19330707 C102.341461,8.82672077 102.933971,8.82672077 103.299847,9.19330707 Z M105.640195,7.31575605 C106.005752,7.68266335 106.005752,8.27684132 105.640195,8.64342762 C105.274318,9.01001392 104.681809,9.01001392 104.316252,8.64342762 C103.950695,8.27684132 103.950695,7.68266335 104.316252,7.31575605 C104.681809,6.94916975 105.274318,6.94916975 105.640195,7.31575605 Z M99.5552565,13.4178321 C99.9208601,13.7847865 99.9208601,14.3790407 99.5552565,14.745674 C99.1893327,15.1119862 98.5967475,15.1119862 98.2311438,14.745674 C97.8658604,14.3790407 97.8658604,13.7847865 98.2311438,13.4178321 C98.5967475,13.0511988 99.1893327,13.0511988 99.5552565,13.4178321 Z M62.5429321,20.2225336 C60.3673356,22.0746977 57.8064012,23 54.8658571,23 C51.7102527,23 48.9774786,21.8917166 46.6758662,19.6798282 C44.3940414,17.4450672 43.2510461,14.7258221 43.2510461,11.5330094 C43.2510461,8.3396768 44.3935207,5.61939202 46.6753454,3.38463103 C48.9764371,1.13063623 51.7092113,0 54.8653363,0 C56.7342248,0 58.3750349,0.306701322 59.7888081,0.927381625 C61.2020606,1.52466945 62.6272898,2.54666064 64.0665786,3.98451802 L64.1842629,4.10200023 L61.973257,6.48387388 L61.8467204,6.37834784 C60.440758,5.20508532 59.3602499,4.41857837 58.5984267,4.00739067 C57.4689703,3.41322183 56.2265162,3.11483783 54.8658571,3.11535767 C52.5168585,3.11483783 50.5656953,3.93617358 49.0035149,5.57832523 C47.4376895,7.22411572 46.6555578,9.20467849 46.6550371,11.5330094 C46.6555578,13.8384676 47.436648,15.8091536 49.0035149,17.4544242 C50.5656953,19.0976155 52.5163378,19.9173918 54.8653363,19.9173918 C57.036767,19.9179116 58.8655595,19.2899537 60.3657734,18.0392361 C61.9206636,16.7458922 62.7178963,15.0891852 62.7600751,13.0587185 L55.1017463,13.0587185 L55.1017463,9.9745508 L66.1979134,9.97403096 L66.1984341,12.0039779 C66.1979134,15.4073229 64.9814956,18.1525596 62.5429321,20.2225336 Z M81.6457942,20.6877839 C80.079448,22.1864617 78.1970207,22.9376201 76.0089267,22.9376201 C73.8427033,22.9376201 71.9712112,22.1859419 70.4048651,20.6877839 C68.8348738,19.1844276 68.0501386,17.2714431 68.0501386,14.9613064 C68.0501386,12.6740423 68.8239386,10.7719742 70.37258,9.26913776 C71.9389262,7.7475873 73.8213535,6.98551249 76.0089267,6.98551249 C78.1772331,6.98551249 80.0476837,7.74706747 81.6140299,9.26809809 C83.2053709,10.7704147 84,12.6724828 84,14.9618262 C84,17.2714431 83.2168269,19.1839078 81.6457942,20.6877839 Z M79.4139592,11.3375523 C78.5250786,10.409131 77.3945807,9.94336083 76.0089267,9.94336083 C74.6029644,9.94336083 73.462052,10.409131 72.5731714,11.3375523 C71.7056406,12.2425811 71.2656265,13.4454741 71.2656265,14.9618262 C71.2656265,16.4563453 71.7155344,17.6587185 72.604415,18.5871398 C73.4943371,19.5155611 74.6243142,19.9808114 76.0089267,19.9808114 C77.3945807,19.9808114 78.5245578,19.5155611 79.4139592,18.5871398 C80.3033605,17.6587185 80.7532685,16.4558255 80.7532685,14.9618262 C80.7532685,13.4688665 80.3033605,12.2654537 79.4139592,11.3375523 Z M40.9098585,5.38910611 C40.594298,5.74883038 40.1313719,5.91621652 39.5533652,5.9156979 C39.0102472,5.91621652 38.5504454,5.74051305 38.1984341,5.38910611 C37.874542,5.02054469 37.7094716,4.57608769 37.7094716,4.07496892 C37.7094716,3.57333032 37.8714177,3.14134931 38.1979134,2.79306136 C38.5316992,2.4348966 38.991501,2.26543112 39.5538859,2.26543112 C40.0985661,2.26543112 40.5469119,2.44789242 40.8786149,2.8237315 C41.2222945,3.16994011 41.3977795,3.58944514 41.3977795,4.07496892 C41.3977795,4.59480167 41.2373956,5.03717934 40.9098585,5.38910611 Z M37.9937885,22.6236411 L37.9937885,7.3000113 L41.1139834,7.3000113 L41.1139834,22.6236411 L37.9937885,22.6236411 Z M33.6670696,20.6176065 C32.223615,22.1656684 30.3588923,22.9376201 28.0874821,22.9376201 C25.6884938,22.9376201 23.738372,22.1131653 22.2527385,20.457498 C20.854587,18.8907221 20.1594168,16.9283535 20.1594168,14.583388 C20.1594168,12.4645497 20.8806234,10.6680077 22.3214744,9.20883716 C23.782113,7.72887332 25.5275892,6.98551249 27.5511335,6.98551249 C29.1534098,6.98551249 30.601551,7.33795909 31.8898291,8.04493163 L31.9799148,8.09483557 L31.9799148,11.4186462 L31.7091369,11.2346254 C31.1977832,10.8884168 30.5890536,10.5889931 29.8865931,10.3405131 C29.2075654,10.0748785 28.5858176,9.94336083 28.0239534,9.94336083 C26.5716464,9.94336083 25.4224024,10.4013335 24.5564338,11.3058425 C23.6889029,12.2124308 23.2494095,13.4132444 23.2494095,14.9306362 C23.2494095,16.4241157 23.6977553,17.638445 24.5887188,18.5876596 C25.4984285,19.5155611 26.6596493,19.9808114 28.0869614,19.9808114 C29.4231463,19.9808114 30.5213591,19.4770935 31.392535,18.4670584 C32.278812,17.4606622 32.7360101,15.9864165 32.7360101,14.0178099 L32.7360101,0.377398576 L35.856205,0.377398576 L35.856205,14.521008 C35.856205,17.0104871 35.1308326,19.0492711 33.6670696,20.6176065 Z M15.1859553,22.6231213 L15.1859553,13.7033111 C15.1859553,12.6106227 14.8412341,11.7201492 14.1606442,11.021494 C13.5014041,10.3025653 12.6843838,9.94336083 11.7028138,9.94336083 C10.7655056,9.94336083 9.94796452,10.2994463 9.24237972,11.0235733 C8.56283127,11.7217087 8.22019304,12.6106227 8.22019304,13.7033111 L8.22019304,22.6231213 L5.13124175,22.6231213 L5.13124175,13.7033111 C5.13124175,11.7347045 5.74361645,10.1159453 6.97669748,8.86210871 C8.21134069,7.60827212 9.79122575,6.98551249 11.7028138,6.98551249 C13.5946142,6.98551249 15.1739785,7.60931179 16.4273679,8.86158888 C17.6828402,10.1143858 18.3061502,11.7341847 18.3066709,13.7033111 L18.3061502,22.6231213 L15.1859553,22.6231213 Z M0,22.6231213 L0,0.377398576 L3.27745439,0.377398576 L3.27797512,22.6231213 L0,22.6231213 Z" id="Combined-Shape" fill="#001B94"></path>
    </g>
</svg>

<svg xmlns="http://www.w3.org/2000/svg" viewBox="0 0 113 23"><path fill="#001B94" fill-rule="evenodd" d="M108.72 7.98a.94.94 0 1 1-1.87 0 .94.94 0 0 1 1.87 0Zm-2.8-2.82a.94.94 0 1 1-1.88 0 .94.94 0 0 1 1.87 0Zm2.8 0a.94.94 0 1 1-1.87 0 .94.94 0 0 1 1.87 0Zm-5.61 0a.94.94 0 1 1-1.88 0 .94.94 0 0 1 1.88 0Zm7.21-3A.94.94 0 0 1 109 3.48a.94.94 0 0 1 0-1.34.93.93 0 0 1 1.32 0Zm2.34-1.89c.37.37.37.97 0 1.33a.94.94 0 0 1-1.32 0 .94.94 0 0 1 0-1.33.93.93 0 0 1 1.32 0Zm-12.83 4.9a.94.94 0 1 1-1.88 0 .94.94 0 0 1 1.88 0Zm-2.8 0a.94.94 0 1 1-1.88 0 .94.94 0 0 1 1.87 0Zm10.76 4.69a.94.94 0 1 1 0 1.87.94.94 0 0 1 0-1.87Zm-10.3 9.38a.94.94 0 1 1-1.88 0 .94.94 0 0 1 1.88 0Zm-2.8-2.81a.94.94 0 1 1-1.88 0 .94.94 0 0 1 1.87 0Zm2.8 0a.94.94 0 1 1-1.88 0 .94.94 0 0 1 1.88 0Zm-5.62 0a.94.94 0 1 1-1.87 0 .94.94 0 0 1 1.87 0Zm4.68 4.7a.94.94 0 1 1 0 1.87.94.94 0 0 1 0-1.88Zm11.24-8.46a.94.94 0 1 1 0 1.88.94.94 0 0 1 0-1.88Zm0 3.29a.94.94 0 1 1 0 1.87.94.94 0 0 1 0-1.87Zm-6.09-3.76a.94.94 0 1 1-1.87 0 .94.94 0 0 1 1.87 0Zm1.6-3c.37.36.37.95 0 1.32a.93.93 0 0 1-1.32 0 .94.94 0 0 1 0-1.33.93.93 0 0 1 1.32 0Zm2.34-1.88c.37.36.37.96 0 1.32a.93.93 0 0 1-1.32 0 .94.94 0 0 1 0-1.32.93.93 0 0 1 1.32 0Zm-6.08 6.1c.36.36.36.96 0 1.33a.94.94 0 0 1-1.33 0 .94.94 0 0 1 0-1.33.93.93 0 0 1 1.33 0Zm-37.02 6.8A11.47 11.47 0 0 1 54.87 23c-3.16 0-5.9-1.1-8.2-3.32a10.98 10.98 0 0 1-3.42-8.15c0-3.19 1.14-5.91 3.43-8.15A11.31 11.31 0 0 1 54.87 0c1.86 0 3.5.3 4.92.93 1.41.6 2.84 1.62 4.28 3.05l.11.12-2.2 2.38-.13-.1A22.16 22.16 0 0 0 58.6 4a7.88 7.88 0 0 0-3.73-.9c-2.35 0-4.3.83-5.87 2.47a8.32 8.32 0 0 0-2.34 5.95c0 2.3.78 4.28 2.34 5.92a7.75 7.75 0 0 0 5.87 2.47c2.17 0 4-.63 5.5-1.88a6.36 6.36 0 0 0 2.39-4.98H55.1V9.97h11.1V12c0 3.4-1.22 6.15-3.66 8.22Zm19.1.47a7.87 7.87 0 0 1-5.63 2.25 7.83 7.83 0 0 1-5.6-2.25 7.6 7.6 0 0 1-2.36-5.73 7.6 7.6 0 0 1 2.32-5.7A7.8 7.8 0 0 1 76.01 7c2.17 0 4.04.76 5.6 2.28a7.5 7.5 0 0 1 2.39 5.7c0 2.3-.78 4.21-2.35 5.72Zm-2.23-9.35a4.5 4.5 0 0 0-3.4-1.4c-1.4 0-2.55.47-3.44 1.4-.86.9-1.3 2.1-1.3 3.62 0 1.5.45 2.7 1.33 3.63a4.5 4.5 0 0 0 3.4 1.4 4.5 4.5 0 0 0 3.41-1.4 5.02 5.02 0 0 0 1.34-3.63c0-1.5-.45-2.7-1.34-3.62Zm-38.5-5.95c-.32.36-.78.53-1.36.53-.54 0-1-.18-1.35-.53a1.94 1.94 0 0 1-.5-1.32 1.77 1.77 0 0 1 1.84-1.81c.56 0 1 .19 1.34.56.34.35.52.77.52 1.25 0 .52-.16.97-.49 1.32Zm-2.92 17.23V7.3h3.12v15.32H38Zm-4.32-2a7.3 7.3 0 0 1-5.58 2.32c-2.4 0-4.35-.83-5.84-2.48a8.5 8.5 0 0 1-2.1-5.88c0-2.12.73-3.91 2.17-5.37a7.1 7.1 0 0 1 5.23-2.22c1.6 0 3.05.35 4.34 1.05l.09.05v3.33l-.27-.19a8 8 0 0 0-1.82-.89c-.68-.27-1.3-.4-1.87-.4-1.45 0-2.6.46-3.46 1.37-.87.9-1.31 2.1-1.31 3.62 0 1.5.45 2.7 1.34 3.66.9.93 2.07 1.4 3.5 1.4 1.33 0 2.43-.51 3.3-1.52.89-1 1.35-2.48 1.35-4.45V.38h3.12v14.14c0 2.49-.73 4.53-2.2 6.1Zm-18.48 2V13.7c0-1.09-.35-1.98-1.03-2.68a3.2 3.2 0 0 0-2.46-1.08c-.93 0-1.75.36-2.46 1.08a3.68 3.68 0 0 0-1.02 2.68v8.92H5.13V13.7a6.35 6.35 0 0 1 6.57-6.72 6.42 6.42 0 0 1 6.6 6.72v8.92H15.2ZM0 22.62V.38h3.28v22.24H0Z"/></svg>
